build/img/svg/ps.svg

<svg width="90" height="90" viewBox="0 0 90 90" fill="none" xmlns="http://www.w3.org/2000/svg">
<path d="M3.93408 4.42578H85.5995V85.2804H3.93408V4.42578Z" fill="url(#paint0_radial_167_561)"/>
<path d="M3.93406 4.42575H85.5994V85.2803H3.93406V4.42575ZM0.221191 89.0596H89.2945V0.646484H0.221191V89.0596ZM60.2876 36.9311C57.3602 36.9311 56.3606 38.4392 56.3606 39.6929C56.3606 41.0556 57.021 42.0004 60.9659 44.0717C66.7852 46.9425 68.6059 49.7043 68.6059 53.7379C68.6059 59.7884 64.0719 63.0408 57.9492 63.0408C54.7183 63.0408 51.9337 62.3685 50.345 61.4237C50.0772 61.3146 50.0415 61.1148 50.0415 60.8241V55.246C50.0415 54.8645 50.22 54.7554 50.4878 54.9371C52.8262 56.4815 55.5037 57.172 57.9492 57.172C60.8767 57.172 62.1084 55.9183 62.1084 54.2285C62.1084 52.8658 61.2515 51.6666 57.503 49.6861C52.2371 47.1242 50.0415 44.526 50.0415 40.1653C50.0415 35.2958 53.7901 31.244 60.2876 31.244C63.4828 31.244 65.7141 31.7346 66.928 32.2979C67.2314 32.4796 67.3028 32.7884 67.3028 33.061V38.2393C67.3028 38.5482 67.1243 38.7299 66.7495 38.6209C65.1072 37.567 62.6974 36.9311 60.2876 36.9311ZM28.3712 41.419C29.228 41.4917 29.8885 41.4917 31.3701 41.4917C35.7077 41.4917 39.7954 39.9472 39.7954 33.9331C39.7954 29.1364 36.868 26.7198 31.9234 26.7198C30.4418 26.7198 29.0317 26.7925 28.3533 26.8288L28.3712 41.419ZM21.7487 21.3598C21.7487 21.0872 22.2664 20.9055 22.5698 20.9055C24.9439 20.7965 28.4783 20.7238 32.1376 20.7238C42.4194 20.7238 46.4358 26.4654 46.4358 33.7878C46.4358 43.3813 39.5991 47.5058 31.2094 47.5058C29.7992 47.5058 29.3173 47.4331 28.3176 47.4331V61.9324C28.3176 62.2413 28.2105 62.3867 27.8714 62.3867H22.195C21.8915 62.3867 21.7487 62.2776 21.7487 61.9324V21.3598Z" fill="#31C5F0"/>
<defs>
<radialGradient id="paint0_radial_167_561" cx="0" cy="0" r="1" gradientUnits="userSpaceOnUse" gradientTransform="translate(30.8385 22.5656) scale(62.0565 61.1565)">
<stop stop-color="#34364E" stop-opacity="0.98"/>
<stop offset="1" stop-color="#0C0824"/>
</radialGradient>
</defs>
</svg>

<svg width="90" height="90" fill="none" xmlns="http://www.w3.org/2000/svg"><path d="M3.934 4.426H85.6V85.28H3.934V4.426Z" fill="url(#a)"/><path d="M3.934 4.426H85.6V85.28H3.934V4.426ZM.221 89.06h89.073V.646H.222V89.06ZM60.288 36.93c-2.928 0-3.927 1.508-3.927 2.762 0 1.363.66 2.307 4.605 4.379 5.82 2.87 7.64 5.632 7.64 9.666 0 6.05-4.534 9.303-10.657 9.303-3.23 0-6.015-.672-7.604-1.617-.268-.11-.303-.31-.303-.6v-5.578c0-.382.178-.49.446-.309a13.66 13.66 0 0 0 7.461 2.235c2.928 0 4.16-1.254 4.16-2.944 0-1.362-.858-2.561-4.606-4.542-5.266-2.562-7.462-5.16-7.462-9.52 0-4.87 3.75-8.922 10.247-8.922 3.195 0 5.426.49 6.64 1.054.303.182.375.49.375.763v5.178c0 .31-.179.49-.553.382-1.643-1.054-4.053-1.69-6.462-1.69ZM28.37 41.42c.857.073 1.518.073 3 .073 4.337 0 8.424-1.545 8.424-7.559 0-4.797-2.927-7.213-7.872-7.213-1.481 0-2.891.073-3.57.109l.018 14.59Zm-6.622-20.06c0-.272.517-.454.82-.454 2.375-.108 5.91-.181 9.569-.181 10.281 0 14.298 5.741 14.298 13.064 0 9.593-6.837 13.718-15.227 13.718-1.41 0-1.892-.073-2.891-.073v14.5c0 .308-.108.454-.447.454h-5.676c-.303 0-.446-.11-.446-.455V21.36Z" fill="#31C5F0"/><defs><radialGradient id="a" cx="0" cy="0" r="1" gradientUnits="userSpaceOnUse" gradientTransform="matrix(62.0565 0 0 61.1565 30.838 22.566)"><stop stop-color="#34364E" stop-opacity=".98"/><stop offset="1" stop-color="#0C0824"/></radialGradient></defs></svg>
